symbols/web/forward_to_inbox/materialsymbolsrounded/forward_to_inbox_wght200_40px.svg

<svg xmlns="http://www.w3.org/2000/svg" height="40" width="40"><path d="M33.583 9.75H6.417v19.5q0 .417.291.708.292.292.709.292h15.208V31.667H7.417q-1 0-1.709-.709Q5 30.25 5 29.25v-18.5q0-1 .708-1.708.709-.709 1.709-.709h25.166q1 0 1.709.709Q35 9.75 35 10.75v11.875h-1.417Zm.209 21.917H25.75q-.292 0-.479-.209-.188-.208-.188-.5 0-.291.188-.5.187-.208.479-.208h8.083l-3.125-3.125q-.208-.208-.208-.5 0-.292.208-.5.209-.208.5-.208.292 0 .5.208l3.959 4q.333.333.333.833 0 .5-.333.875l-3.959 3.959q-.208.208-.5.187-.291-.021-.5-.229-.208-.167-.208-.458 0-.292.208-.5ZM6.417 9.75v20.5-7.625V22.917 9.75ZM20 18.25l13.583-8.5V11l-12.916 8.083q-.292.209-.646.209-.354 0-.646-.209L6.417 11V9.75Z"/></svg>

<svg xmlns="http://www.w3.org/2000/svg" height="40" width="40"><path d="M33.583 9.75H6.417V29.25Q6.417 29.667 6.708 29.958Q7 30.25 7.417 30.25H22.625V30.958V31.667H7.417Q6.417 31.667 5.708 30.958Q5 30.25 5 29.25V10.75Q5 9.75 5.708 9.042Q6.417 8.333 7.417 8.333H32.583Q33.583 8.333 34.292 9.042Q35 9.75 35 10.75V22.625Q34.708 22.625 34.333 22.625Q33.958 22.625 33.583 22.625ZM33.792 31.667H25.75Q25.458 31.667 25.271 31.458Q25.083 31.25 25.083 30.958Q25.083 30.667 25.271 30.458Q25.458 30.25 25.75 30.25H33.833L30.708 27.125Q30.5 26.917 30.5 26.625Q30.5 26.333 30.708 26.125Q30.917 25.917 31.208 25.917Q31.5 25.917 31.708 26.125L35.667 30.125Q36 30.458 36 30.958Q36 31.458 35.667 31.833L31.708 35.792Q31.5 36 31.208 35.979Q30.917 35.958 30.708 35.75Q30.5 35.583 30.5 35.292Q30.5 35 30.708 34.792ZM6.417 9.75V29.25Q6.417 29.667 6.417 29.958Q6.417 30.25 6.417 30.25Q6.417 28.833 6.417 27.479Q6.417 26.125 6.417 25.042Q6.417 23.958 6.417 23.292Q6.417 22.625 6.417 22.625Q6.417 22.625 6.417 22.688Q6.417 22.75 6.417 22.917V9.75ZM20 18.25 33.583 9.75Q33.583 9.75 33.583 9.75Q33.583 9.75 33.583 9.75V11Q33.583 11 33.583 11Q33.583 11 33.583 11L20.667 19.083Q20.375 19.292 20.021 19.292Q19.667 19.292 19.375 19.083L6.417 11Q6.417 11 6.417 11Q6.417 11 6.417 11V9.75Q6.417 9.75 6.417 9.75Q6.417 9.75 6.417 9.75Z"/></svg>
